src/assets/icons/splat.svg

<?xml version="1.0" encoding="UTF-8"?>
<svg viewBox="0 0 41 41" xmlns="http://www.w3.org/2000/svg">
<path d="m21.861 1.8098c-0.6726 0.67265-0.8808 1.3613-0.4965 1.6336 0.2243 0.17617 0.4485 0.14414 1.2012-0.08008 1.1531-0.33632 1.2973-0.43242 1.2973-0.75273 0-0.41641-0.7848-1.3293-1.1531-1.3293-0.1762 0-0.5606 0.24024-0.8489 0.52852z" fill="#F038FF"/>
<path d="m9.4973 1.7617c-1.0891 0.65664-1.6336 2.7066-1.0891 4.116 0.16016 0.40039 0.67266 1.1691 1.1371 1.6816 1.1852 1.2812 1.1531 1.6496-0.22422 2.066-0.70468 0.20821-1.1531 0.64061-1.1531 1.1211 0 0.3523 0.32031 0.4644 1.4254 0.4644 1.2652 0 2.1941 0.4965 2.6906 1.4414 0.4644 0.8809 0.4965 2.1141 0.048 2.8348-0.4965 0.8328-1.057 1.009-2.9949 1.025-1.9699 0-2.2902-0.0801-3.7637-0.8648-1.2973-0.6887-2.05-0.8649-2.6746-0.5926-1.3293 0.5445-1.4895 3.8437-0.25625 5.0769 0.48047 0.4805 0.60859 0.5286 1.5535 0.5286 1.2812 0 2.3062-0.3043 4.4844-1.3133 2.1621-0.993 2.6906-1.0891 3.155-0.5926 0.7688 0.8328 0.2243 1.9859-1.3293 2.8828-0.92886 0.5125-1.6175 1.1852-1.7296 1.6817-0.12812 0.5445 0.16016 2.0019 0.44844 2.3222 0.32031 0.3524 1.2172 0.4004 1.4895 0.0801 0.096-0.1121 0.2882-0.5766 0.4164-1.009 0.1761-0.5926 0.4484-1.009 1.057-1.5695 1.073-1.009 1.2973-0.8168 0.8008 0.6887-0.3844 1.2011-0.3364 1.5855 0.2562 1.7296 0.3203 0.0801 0.5285-0.032 1.0731-0.5605 0.3683-0.3524 0.8168-0.6566 0.9929-0.6566 0.5606 0 1.3934 0.6886 1.9539 1.6015l0.5446 0.8809-0.0801 1.8418c-0.0961 2.1781-0.3363 2.9468-1.6016 5.125-1.025 1.7617-1.3132 2.6265-1.1691 3.4113 0.2402 1.2652 1.7137 2.5145 2.9949 2.5145 0.7527 0 2.1461-0.8329 2.6106-1.5696 0.6726-1.009 0.6566-1.4574-0.0801-4.5965-0.6406-2.6425-0.6887-3.0589-0.7047-5.0449 0-1.6016 0.0641-2.2902 0.2402-2.6426 0.5446-1.073 1.2492-0.5445 1.8418 1.4414 0.3043 0.977 0.5285 1.4414 0.8008 1.6176 0.8488 0.5606 1.5215-0.3043 1.5215-1.9219 0-1.073 0.1121-1.3773 0.4805-1.3773 0.5445 0 0.9289 0.7207 1.041 1.9699 0.1281 1.2492 0.4965 2.2903 1.025 2.8188 0.8488 0.8488 2.4183 0.048 2.4183-1.2172-0.016-0.8809-0.4644-1.7457-1.5695-2.9789-0.7207-0.7688-0.993-1.2012-0.993-1.5215 0.0161-0.8168 0.8969-1.5535 1.6496-1.3453 1.1211 0.3043 3.5395 2.5785 4.2762 4.0359 0.1602 0.3203 0.4485 1.2492 0.6406 2.066 0.4164 1.7618 0.8809 2.4024 1.8579 2.5625 1.4414 0.2403 2.8828-0.3683 3.4593-1.4734 0.6246-1.2492 0.0641-3.2191-1.2172-4.1961-0.3043-0.2242-0.9769-0.4965-1.5535-0.6246-0.5605-0.1121-1.2972-0.3203-1.6176-0.4645-1.9058-0.8007-5.3492-3.9078-4.8687-4.3882 0.2082-0.2082 1.2012-0.0321 2.034 0.3523 1.1211 0.5125 2.114 0.5445 2.4504 0.0481 0.4004-0.5766 0.3203-1.3293-0.1922-1.9219-0.4965-0.5446-0.4164-0.5285-2.8828-0.4324-1.2973 0.064-1.3614 0.048-1.7297-0.3844-0.5766-0.6727-0.5445-1.8578 0.0801-2.5465l0.4644-0.5285 2.066-0.0961c2.4664-0.1121 2.9149-0.2883 3.4754-1.3934 0.2082-0.4164 0.4324-0.9769 0.4805-1.2652 0.2562-1.1371-0.8008-1.9699-2.4984-1.9699-0.7848 0-0.8489 0.032-1.6336 0.8648-1.5375 1.6336-2.6746 1.986-3.2832 0.993-0.4805-0.7528-0.4325-1.4574 0.1121-2.002 0.2402-0.2402 1.2011-0.73669 2.1461-1.1211 2.0339-0.81679 2.9629-1.5535 3.4754-2.7547 0.4804-1.0891 0.4964-2.3062 0.08-3.027-0.6086-1.041-2.2742-1.3773-3.6515-0.7207-0.977 0.46446-1.3453 1.1051-1.7618 3.1711-0.4484 2.1461-0.6886 2.7227-1.5855 3.7316-0.8488 0.96097-1.5855 1.2973-2.098 0.96097-0.6887-0.4485-0.929-1.2332-0.8008-2.7227 0.1281-1.6496-0.0641-2.2742-0.9129-3.043-0.7528-0.68868-1.3133-0.73672-1.6817-0.17617-0.3683 0.56054-0.3043 1.2812 0.1762 2.4824 0.6246 1.4894 0.4164 2.5144-0.6086 3.075-0.6566 0.3523-3.4754-1.1371-4.7887-2.5305-0.6886-0.73672-1.8097-2.4664-2.5304-3.9078-0.7367-1.4734-1.0571-1.8898-1.7617-2.2422-0.8008-0.40039-1.6977-0.40039-2.3543 0z" fill="#F038FF"/>
<path d="m37.492 4.1c-0.1922 0.24023-0.3363 0.60859-0.3363 0.83281 0 0.25625-0.2082 0.62461-0.5125 0.94492-0.4805 0.49649-0.4965 0.52852-0.1602 0.52852 0.929 0 2.5946-1.1852 2.5946-1.8258 0-0.44844-0.4645-0.89688-0.9289-0.89688-0.1762 0-0.4805 0.19219-0.6567 0.41641z" fill="#F038FF"/>
<path d="m35.811 7.7035c-0.5285 0.17618-1.2492 0.52852-1.6015 0.78477-0.7208 0.48047-1.4735 1.2332-1.3614 1.3453 0.0321 0.03203 0.5446-0.04805 1.1371-0.17617l1.0891-0.24023 0.5605 0.49648c0.8809 0.76872 1.9059 0.64062 2.4024-0.3043 0.3363-0.64062 0.3043-1.3293-0.0961-1.8258-0.4004-0.5125-0.8328-0.52851-2.1301-0.08008z" fill="#F038FF"/>
<path d="m3.5394 9.3371c-0.92891 0.48047-0.57657 1.5535 0.5125 1.5535 0.83281 0 3.3473-0.4484 3.5394-0.6406 0.28828-0.28828-0.25625-0.62461-1.4254-0.88086-1.3613-0.28828-2.1141-0.3043-2.6266-0.03203z" fill="#F038FF"/>
<path d="m35.074 20.564c0 0.5765 2.4824 1.8578 3.5715 1.8578 0.5766 0 1.0731-0.4004 1.0731-0.8489 0-0.4164-0.6887-0.7527-2.034-0.9929-1.6817-0.3043-2.6106-0.3043-2.6106-0.016z" fill="#F038FF"/>
<path d="m3.8437 22.966c-0.76875 0.2723-2.034 1.1531-2.3383 1.6336-0.40039 0.6086-0.20821 1.6336 0.4164 2.1781 0.62461 0.5606 1.025 0.5606 1.6016 0 0.32032-0.3363 0.48047-0.6886 0.56055-1.2492 0.16016-1.2172 0.19219-1.2812 1.1211-1.9699 0.48047-0.3684 0.88086-0.7047 0.88086-0.7367 0-0.1602-1.7137-0.0481-2.2422 0.1441z" fill="#F038FF"/>
<path d="m7.3672 25.257c-0.49649 0.1921-0.80079 0.5925-0.80079 1.089 0 1.009 1.1051 1.3934 1.8418 0.6406 0.88086-0.8648 0.0961-2.1461-1.041-1.7296z" fill="#F038FF"/>
<path d="m12.572 26.73c-1.5856 0.7207-2.7867 3.4594-2.0981 4.7887 0.3203 0.6246 0.7047 0.8328 1.4895 0.8328 0.8008 0 1.6176-0.5125 1.9058-1.2012 0.1922-0.4805 0.1922-0.6406-0.032-1.2973-0.2402-0.7207-0.2402-0.7847 0.0801-1.3453 0.4164-0.7527 0.4324-1.3453 0.016-1.7617-0.3844-0.3844-0.5445-0.4004-1.3613-0.016z" fill="#F038FF"/>
<path d="m27.307 32.272c-0.5605 0.5445-0.5605 1.7937-0.032 2.2902 0.4805 0.4485 0.6726 0.4485 1.1531-0.048 0.3043-0.2883 0.4004-0.5606 0.4004-1.1211 0-0.5606-0.0961-0.8328-0.4004-1.1211-0.2082-0.2242-0.4644-0.4004-0.5605-0.4004s-0.3524 0.1762-0.5606 0.4004z" fill="#F038FF"/>
</svg>

<svg width="41" height="41" viewBox="0 0 41 41" fill="none" xmlns="http://www.w3.org/2000/svg">
<path d="M21.8613 1.80976C21.1887 2.48241 20.9805 3.17109 21.3648 3.44335C21.5891 3.61952 21.8133 3.58749 22.566 3.36327C23.7191 3.02695 23.8633 2.93085 23.8633 2.61054C23.8633 2.19413 23.0785 1.28124 22.7102 1.28124C22.534 1.28124 22.1496 1.52148 21.8613 1.80976Z" fill="#F038FF"/>
<path d="M9.49726 1.76172C8.4082 2.41836 7.86367 4.46836 8.4082 5.87774C8.56836 6.27813 9.08086 7.04688 9.54531 7.55938C10.7305 8.84063 10.6984 9.20898 9.32109 9.62539C8.61641 9.8336 8.16797 10.266 8.16797 10.7465C8.16797 11.0988 8.48828 11.2109 9.59336 11.2109C10.8586 11.2109 11.7875 11.7074 12.284 12.6523C12.7484 13.5332 12.7805 14.7664 12.332 15.4871C11.8355 16.3199 11.275 16.4961 9.33711 16.5121C7.36719 16.5121 7.04687 16.432 5.57344 15.6473C4.27617 14.9586 3.52344 14.7824 2.89883 15.0547C1.56953 15.5992 1.40937 18.8984 2.64258 20.1316C3.12305 20.6121 3.25117 20.6602 4.19609 20.6602C5.47734 20.6602 6.50234 20.3559 8.68047 19.3469C10.8426 18.3539 11.3711 18.2578 11.8355 18.7543C12.6043 19.5871 12.0598 20.7402 10.5062 21.6371C9.57734 22.1496 8.88867 22.8223 8.77656 23.3188C8.64844 23.8633 8.93672 25.3207 9.225 25.641C9.54531 25.9934 10.4422 26.0414 10.7145 25.7211C10.8105 25.609 11.0027 25.1445 11.1309 24.7121C11.307 24.1195 11.5793 23.7031 12.1879 23.1426C13.2609 22.1336 13.4852 22.3258 12.9887 23.8313C12.6043 25.0324 12.6523 25.4168 13.2449 25.5609C13.5652 25.641 13.7734 25.5289 14.318 25.0004C14.6863 24.648 15.1348 24.3438 15.3109 24.3438C15.8715 24.3438 16.7043 25.0324 17.2648 25.9453L17.8094 26.8262L17.7293 28.668C17.6332 30.8461 17.393 31.6148 16.1277 33.793C15.1027 35.5547 14.8145 36.4195 14.9586 37.2043C15.1988 38.4695 16.6723 39.7188 17.9535 39.7188C18.7062 39.7188 20.0996 38.8859 20.5641 38.1492C21.2367 37.1402 21.2207 36.6918 20.484 33.5527C19.8434 30.9102 19.7953 30.4938 19.7793 28.5078C19.7793 26.9062 19.8434 26.2176 20.0195 25.8652C20.5641 24.7922 21.2687 25.3207 21.8613 27.3066C22.1656 28.2836 22.3898 28.748 22.6621 28.9242C23.5109 29.4848 24.1836 28.6199 24.1836 27.0023C24.1836 25.9293 24.2957 25.625 24.6641 25.625C25.2086 25.625 25.593 26.3457 25.7051 27.5949C25.8332 28.8441 26.2016 29.8852 26.7301 30.4137C27.5789 31.2625 29.1484 30.4617 29.1484 29.1965C29.1324 28.3156 28.684 27.4508 27.5789 26.2176C26.8582 25.4488 26.5859 25.0164 26.5859 24.6961C26.602 23.8793 27.4828 23.1426 28.2355 23.3508C29.3566 23.6551 31.775 25.9293 32.5117 27.3867C32.6719 27.707 32.9602 28.6359 33.1523 29.4527C33.5687 31.2145 34.0332 31.8551 35.0102 32.0152C36.4516 32.2555 37.893 31.6469 38.4695 30.5418C39.0941 29.2926 38.5336 27.3227 37.2523 26.3457C36.948 26.1215 36.2754 25.8492 35.6988 25.7211C35.1383 25.609 34.4016 25.4008 34.0812 25.2566C32.1754 24.4559 28.732 21.3488 29.2125 20.8684C29.4207 20.6602 30.4137 20.8363 31.2465 21.2207C32.3676 21.7332 33.3605 21.7652 33.6969 21.2688C34.0973 20.6922 34.0172 19.9395 33.5047 19.3469C33.0082 18.8023 33.0883 18.8184 30.6219 18.9145C29.3246 18.9785 29.2605 18.9625 28.8922 18.5301C28.3156 17.8574 28.3477 16.6723 28.9723 15.9836L29.4367 15.4551L31.5027 15.359C33.9691 15.2469 34.4176 15.0707 34.9781 13.9656C35.1863 13.5492 35.4105 12.9887 35.4586 12.7004C35.7148 11.5633 34.6578 10.7305 32.9602 10.7305C32.1754 10.7305 32.1113 10.7625 31.3266 11.5953C29.7891 13.2289 28.652 13.5813 28.0434 12.5883C27.5629 11.8355 27.6109 11.1309 28.1555 10.5863C28.3957 10.3461 29.3566 9.84961 30.3016 9.46523C32.3355 8.64844 33.2645 7.91172 33.777 6.71055C34.2574 5.62149 34.2734 4.4043 33.857 3.68359C33.2484 2.64258 31.5828 2.30625 30.2055 2.96289C29.2285 3.42735 28.8602 4.06797 28.4437 6.13398C27.9953 8.28008 27.7551 8.85664 26.8582 9.86563C26.0094 10.8266 25.2727 11.1629 24.7602 10.8266C24.0715 10.3781 23.8312 9.59336 23.9594 8.10391C24.0875 6.4543 23.8953 5.82969 23.0465 5.06094C22.2937 4.37226 21.7332 4.32422 21.3648 4.88477C20.9965 5.44531 21.0605 6.16602 21.541 7.36719C22.1656 8.85664 21.9574 9.88164 20.9324 10.4422C20.2758 10.7945 17.457 9.30508 16.1437 7.91172C15.4551 7.175 14.334 5.44531 13.6133 4.00391C12.8766 2.53047 12.5562 2.11406 11.8516 1.76172C11.0508 1.36133 10.1539 1.36133 9.49726 1.76172Z" fill="#F038FF"/>
<path d="M37.4925 4.1C37.3003 4.34023 37.1562 4.70859 37.1562 4.93281C37.1562 5.18906 36.948 5.55742 36.6437 5.87773C36.1632 6.37422 36.1472 6.40625 36.4835 6.40625C37.4125 6.40625 39.0781 5.22109 39.0781 4.58047C39.0781 4.13203 38.6136 3.68359 38.1492 3.68359C37.973 3.68359 37.6687 3.87578 37.4925 4.1Z" fill="#F038FF"/>
<path d="M35.8109 7.70352C35.2824 7.8797 34.5617 8.23204 34.2094 8.48829C33.4886 8.96876 32.7359 9.72149 32.848 9.8336C32.8801 9.86563 33.3926 9.78555 33.9851 9.65743L35.0742 9.4172L35.6347 9.91368C36.5156 10.6824 37.5406 10.5543 38.0371 9.60938C38.3734 8.96876 38.3414 8.28009 37.941 7.7836C37.5406 7.2711 37.1082 7.25509 35.8109 7.70352Z" fill="#F038FF"/>
<path d="M3.53945 9.33711C2.61054 9.81758 2.96288 10.8906 4.05195 10.8906C4.88476 10.8906 7.39921 10.4422 7.5914 10.25C7.87968 9.96172 7.33515 9.62539 6.16601 9.36914C4.80468 9.08086 4.05195 9.06484 3.53945 9.33711Z" fill="#F038FF"/>
<path d="M35.0742 20.5641C35.0742 21.1406 37.5566 22.4219 38.6457 22.4219C39.2223 22.4219 39.7188 22.0215 39.7188 21.573C39.7188 21.1566 39.0301 20.8203 37.6848 20.5801C36.0031 20.2758 35.0742 20.2758 35.0742 20.5641Z" fill="#F038FF"/>
<path d="M3.84374 22.9664C3.07499 23.2387 1.80975 24.1195 1.50546 24.6C1.10507 25.2086 1.29725 26.2336 1.92186 26.7781C2.54647 27.3387 2.94686 27.3387 3.52342 26.7781C3.84374 26.4418 4.00389 26.0895 4.08397 25.5289C4.24413 24.3117 4.27616 24.2477 5.20506 23.559C5.68553 23.1906 6.08592 22.8543 6.08592 22.8223C6.08592 22.6621 4.37225 22.7742 3.84374 22.9664Z" fill="#F038FF"/>
<path d="M7.3672 25.2567C6.87071 25.4488 6.56641 25.8492 6.56641 26.3457C6.56641 27.3547 7.67149 27.7391 8.40821 26.9863C9.28907 26.1215 8.50431 24.8402 7.3672 25.2567Z" fill="#F038FF"/>
<path d="M12.5723 26.7301C10.9867 27.4508 9.78556 30.1895 10.4742 31.5188C10.7945 32.1434 11.1789 32.3516 11.9637 32.3516C12.7645 32.3516 13.5813 31.8391 13.8695 31.1504C14.0617 30.6699 14.0617 30.5098 13.8375 29.8531C13.5973 29.1324 13.5973 29.0684 13.9176 28.5078C14.334 27.7551 14.35 27.1625 13.9336 26.7461C13.5492 26.3617 13.3891 26.3457 12.5723 26.7301Z" fill="#F038FF"/>
<path d="M27.3066 32.2715C26.7461 32.816 26.7461 34.0652 27.2746 34.5617C27.7551 35.0102 27.9472 35.0102 28.4277 34.5137C28.732 34.2254 28.8281 33.9531 28.8281 33.3926C28.8281 32.832 28.732 32.5598 28.4277 32.2715C28.2195 32.0473 27.9633 31.8711 27.8672 31.8711C27.7711 31.8711 27.5148 32.0473 27.3066 32.2715Z" fill="#F038FF"/>
</svg>
